; generated by PrusaSlicer 2.6.0-alpha3+win64 on 2023-03-21 at 23:40:45 UTC

; 

; external perimeters extrusion width = 0.45mm
; perimeters extrusion width = 0.45mm
; infill extrusion width = 0.45mm
; solid infill extrusion width = 0.45mm
; top infill extrusion width = 0.40mm
; support material extrusion width = 0.40mm
; first layer extrusion width = 0.60mm

M107
M190 S60 ; set bed temperature and wait for it to be reached
M104 S200 ; set temperature
;TYPE:Custom
G28 ; home all axes
G1 Z5 F5000 ; lift nozzle
M109 S200 ; set temperature and wait for it to be reached
G21 ; set units to millimeters
G90 ; use absolute coordinates
M82 ; use absolute distances for extrusion
G92 E0
; Filament gcode
M107
;LAYER_CHANGE
;Z:0.3
;HEIGHT:0.3
G1 Z.3 F6000
G1 E-2 F2400
G92 E0
G1 X93.872 Y71.132 F6000
G1 E2 F2400
;TYPE:Skirt/Brim
;WIDTH:0.6
G1 X95.214 Y69.708 E2.13072
G1 X96.099 Y69.002 E2.20635
G1 X97.245 Y68.301 E2.2961
G1 X98.546 Y67.685 E2.39226
G1 X100.428 Y67.151 E2.52295
G1 X102.376 Y66.962 E2.6537
G1 X103.508 Y67.013 E2.7294
G1 X104.326 Y67.124 E2.78455
G1 X106.216 Y67.631 E2.91528
G1 X107.985 Y68.468 E3.04602
G1 X109.576 Y69.607 E3.17674
G1 X110.938 Y71.012 E3.30746
G1 X112.027 Y72.638 E3.4382
G1 X112.808 Y74.431 E3.56885
G1 X113.257 Y76.336 E3.6996
G1 X113.377 Y77.872 E3.80253
G1 X113.427 Y127.12 E7.09256
G1 X113.307 Y128.665 E7.19609
G1 X113.16 Y129.478 E7.25128
G1 X112.568 Y131.343 E7.382
G1 X111.653 Y133.072 E7.51268
G1 X110.444 Y134.611 E7.64342
G1 X108.98 Y135.909 E7.77413
G1 X108.034 Y136.533 E7.84984
G1 X106.265 Y137.369 E7.98055
G1 X104.376 Y137.877 E8.11123
G1 X102.426 Y138.038 E8.24194
G1 X100.478 Y137.849 E8.37269
G1 X98.595 Y137.315 E8.50345
G1 X97.836 Y136.991 E8.55858
G1 X96.149 Y135.999 E8.68932
G1 X95.264 Y135.293 E8.76495
G1 X93.922 Y133.869 E8.89567
G1 X93.436 Y133.201 E8.95086
G1 X92.63 Y131.802 E9.05872
G1 X86.377 Y118.221 E10.05755
G1 X85.974 Y116.699 E10.16273
G1 X85.819 Y115.259 E10.25949
G1 X85.893 Y89.441 E11.98428
G1 X86 Y88.466 E12.04981
G1 X86.243 Y87.361 E12.12539
G1 X86.55 Y86.441 E12.19018
G1 X92.567 Y73.226 E13.16022
G1 X93.386 Y71.8 E13.27008
G1 X93.836 Y71.18 E13.32126
G1 X94.268 Y71.494 F6000
G1 F2400
G1 X95.548 Y70.127 E13.44637
G1 X96.433 Y69.42 E13.52204
G1 X98.04 Y68.481 E13.64638
G1 X99.789 Y67.844 E13.77073
G1 X100.5 Y67.682 E13.81945
G1 X101.623 Y67.53 E13.89516
G1 X103.484 Y67.548 E14.01949
G1 X104.207 Y67.646 E14.06823
G1 X106.005 Y68.124 E14.19252
G1 X107.69 Y68.915 E14.31687
G1 X109.206 Y69.994 E14.44118
G1 X110.504 Y71.327 E14.56548
G1 X111.544 Y72.87 E14.68979
G1 X112.292 Y74.574 E14.81411
G1 X112.724 Y76.384 E14.93842
G1 X112.841 Y77.872 E15.03813
G1 X112.891 Y127.12 E18.32816
G1 X112.643 Y129.335 E18.47706
G1 X112.085 Y131.11 E18.60136
G1 X111.22 Y132.758 E18.7257
G1 X110.074 Y134.224 E18.85001
G1 X108.685 Y135.462 E18.97431
G1 X107.739 Y136.086 E19.05002
G1 X106.055 Y136.877 E19.17431
G1 X104.256 Y137.354 E19.29865
G1 X102.402 Y137.503 E19.42291
G1 X100.55 Y137.318 E19.54725
G1 X98.761 Y136.806 E19.67156
G1 X98.09 Y136.519 E19.72031
G1 X96.483 Y135.58 E19.84465
G1 X95.598 Y134.874 E19.92028
G1 X94.325 Y133.516 E20.04463
G1 X93.896 Y132.926 E20.09336
G1 X93.116 Y131.577 E20.19746
G1 X86.886 Y118.055 E21.19207
G1 X86.497 Y116.585 E21.29365
G1 X86.355 Y115.259 E21.38274
G1 X86.428 Y89.443 E23.1074
G1 X86.523 Y88.581 E23.16533
G1 X86.766 Y87.476 E23.24091
G1 X87.037 Y86.663 E23.29816
G1 X93.055 Y73.448 E24.26823
G1 X93.846 Y72.075 E24.37409
G1 X94.233 Y71.542 E24.41809
G1 X94.678 Y71.837 F6000
G1 F2400
G1 X95.882 Y70.545 E24.53607
G1 X96.767 Y69.839 E24.6117
G1 X98.294 Y68.953 E24.72964
G1 X99.954 Y68.354 E24.84754
G1 X100.572 Y68.213 E24.88989
G1 X101.695 Y68.061 E24.9656
G1 X103.46 Y68.083 E25.08352
G1 X104.088 Y68.168 E25.12586
G1 X105.795 Y68.616 E25.24376
G1 X107.395 Y69.362 E25.3617
G1 X108.835 Y70.382 E25.47959
G1 X110.071 Y71.642 E25.5975
G1 X111.062 Y73.102 E25.71538
G1 X111.776 Y74.716 E25.83328
G1 X112.19 Y76.432 E25.95121
G1 X112.306 Y77.873 E26.04779
G1 X112.356 Y127.121 E29.33782
G1 X112.127 Y129.193 E29.47708
G1 X111.603 Y130.878 E29.59496
G1 X110.786 Y132.443 E29.7129
G1 X109.704 Y133.837 E29.83079
G1 X108.389 Y135.015 E29.94873
G1 X107.444 Y135.639 E30.02438
G1 X105.844 Y136.384 E30.14229
G1 X104.137 Y136.832 E30.26019
G1 X102.378 Y136.968 E30.37805
G1 X100.622 Y136.788 E30.49598
G1 X98.927 Y136.296 E30.61389
G1 X98.344 Y136.047 E30.65624
G1 X96.817 Y135.161 E30.77418
G1 X95.932 Y134.455 E30.84981
G1 X94.728 Y133.164 E30.96774
G1 X93.602 Y131.351 E31.11032
G1 X87.548 Y118.279 E32.07271
G1 X87.253 Y117.453 E32.1313
G1 X87.02 Y116.47 E32.19879
G1 X86.89 Y115.259 E32.28016
G1 X86.964 Y89.444 E34.00475
G1 X87.046 Y88.696 E34.05502
G1 X87.525 Y86.885 E34.18016
G1 X93.542 Y73.67 E35.1502
G1 X94.647 Y71.888 E35.29028
G1 E33.29028
G92 E0
G1 X102.784 Y71.592 F6000
G1 E2 F2400
;TYPE:Support material
G1 X103.301 Y71.615 E2.03457
G1 X104.405 Y71.867 E2.11022
G1 X105.447 Y72.313 E2.18594
G1 X106.392 Y72.937 E2.26159
G1 X107.21 Y73.72 E2.33724
G1 X107.876 Y74.636 E2.4129
G1 X108.367 Y75.657 E2.48859
G1 X108.669 Y76.748 E2.56422
G1 X108.77 Y77.876 E2.63988
G1 X108.668 Y79.004 E2.71554
G1 X108.367 Y80.096 E2.79121
G1 X107.876 Y81.117 E2.8669
G1 X107.21 Y82.033 E2.94256
G1 X107.018 Y82.216 E2.96028
G1 X107.018 Y81.783 E2.98921
G1 X106.711 Y81.475 E3.01826
G1 X103.276 Y81.475 E3.24774
G1 X102.968 Y81.783 E3.27684
G1 X102.968 Y84.151 E3.43504
G1 X102.169 Y84.187 E3.48847
G1 X102.018 Y84.167 E3.49865
G1 X102.018 Y81.783 E3.65791
G1 X101.711 Y81.475 E3.68696
G1 X98.276 Y81.475 E3.91644
G1 X97.968 Y81.783 E3.94554
G1 X97.968 Y82.307 E3.98055
G1 X97.341 Y81.59 E4.04418
G1 X96.76 Y80.618 E4.11983
G1 X96.362 Y79.557 E4.19553
G1 X96.16 Y78.443 E4.27116
G1 X96.16 Y77.31 E4.34685
G1 X96.362 Y76.196 E4.42248
G1 X96.76 Y75.135 E4.49818
G1 X97.341 Y74.163 E4.57383
G1 X98.086 Y73.31 E4.64949
G1 X98.972 Y72.603 E4.72521
G1 X99.969 Y72.067 E4.80083
G1 X101.047 Y71.716 E4.87657
G1 X102.169 Y71.564 E4.95221
G1 X102.704 Y71.588 E4.98799
G1 X107.856 Y80.601 F6000
G1 F2400
G1 X107.856 Y75.706 E5.315
G1 X107.461 Y74.884 E5.37593
G1 X107.261 Y74.61 E5.39859
G1 X107.261 Y81.142 E5.83496
G1 X107.176 Y81.259 E5.84462
G1 X106.911 Y80.993 E5.8697
G1 X106.666 Y80.993 E5.88607
G1 X106.666 Y73.866 E6.36219
G1 X106.071 Y73.303 E6.41691
G1 X106.071 Y80.993 E6.93064
G1 X105.476 Y80.993 E6.97039
G1 X105.476 Y72.91 E7.51038
G1 X105.217 Y72.739 E7.53111
G1 X104.881 Y72.595 E7.55553
G1 X104.881 Y80.993 E8.11656
G1 X104.285 Y80.993 E8.15638
G1 X104.285 Y72.341 E8.73438
G1 X103.69 Y72.199 E8.77525
G1 X103.69 Y80.993 E9.36274
G1 X103.095 Y80.993 E9.40249
G1 X103.095 Y72.089 E9.99733
G1 X102.5 Y72.062 E10.03712
G1 X102.493 Y81.576 E10.67271
G1 X101.905 Y80.993 E10.72803
G1 X101.905 Y72.087 E11.323
G1 X101.31 Y72.167 E11.36311
G1 X101.31 Y80.993 E11.95273
G1 X100.715 Y80.993 E11.99248
G1 X100.715 Y72.331 E12.57115
G1 X100.119 Y72.533 E12.61319
G1 X100.119 Y80.993 E13.17836
G1 X99.524 Y80.993 E13.21811
G1 X99.524 Y72.853 E13.76191
G1 X99.238 Y73.007 E13.78361
G1 X98.929 Y73.254 E13.81004
G1 X98.929 Y80.993 E14.32705
G1 X98.334 Y80.993 E14.3668
G1 X98.334 Y73.758 E14.85014
G1 X97.739 Y74.44 E14.9106
G1 X97.739 Y81.312 E15.36969
G1 X97.196 Y80.408 E15.44014
G1 X97.144 Y80.267 E15.45018
G1 X97.144 Y74.963 E15.80452
G1 E13.80452
G92 E0
G1 X96.564 Y84.881 F6000
G1 E2 F2400
G1 X97.102 Y84.968 E2.03641
G1 X97.968 Y85.311 E2.09864
G1 X97.968 Y94.729 E2.72781
G1 X97.102 Y95.071 E2.79001
G1 X95.983 Y95.252 E2.86574
G1 X94.852 Y95.188 E2.94142
G1 X93.762 Y94.883 E3.01703
G1 X92.763 Y94.352 E3.09261
G1 X91.901 Y93.618 E3.16824
G1 X91.217 Y92.717 E3.24381
G1 X90.743 Y91.691 E3.31931
G1 X90.5 Y90.586 E3.39489
G1 X90.5 Y89.455 E3.47045
G1 X90.742 Y88.35 E3.54602
G1 X91.217 Y87.323 E3.62161
G1 X91.901 Y86.422 E3.69718
G1 X92.762 Y85.689 E3.77272
G1 X93.761 Y85.157 E3.84833
G1 X94.852 Y84.852 E3.92401
G1 X95.983 Y84.788 E3.99969
G1 X96.484 Y84.869 E4.03359
G1 X97.144 Y94.796 F6000
G1 F2400
G1 X97.144 Y85.503 E4.65441
G1 X96.973 Y85.436 E4.66668
G1 X96.549 Y85.367 E4.69538
G1 X96.549 Y94.672 E5.317
G1 X95.954 Y94.768 E5.35726
G1 X95.954 Y85.272 E5.99164
G1 X95.358 Y85.306 E6.03152
G1 X95.358 Y94.734 E6.66136
G1 X94.932 Y94.71 E6.68986
G1 X94.763 Y94.663 E6.70158
G1 X94.763 Y85.377 E7.32194
G1 X94.168 Y85.544 E7.36323
G1 X94.168 Y94.496 E7.96127
G1 X93.942 Y94.433 E7.97694
G1 X93.573 Y94.237 E8.00485
G1 X93.573 Y85.803 E8.56829
G1 X93.035 Y86.09 E8.60903
G1 X92.978 Y86.138 E8.61401
G1 X92.978 Y93.902 E9.13269
G1 X92.383 Y93.395 E9.18491
G1 X92.383 Y86.645 E9.63585
G1 X92.253 Y86.755 E9.64723
G1 X91.788 Y87.369 E9.69868
G1 X91.788 Y92.671 E10.05288
G1 X91.633 Y92.467 E10.07
G1 X91.192 Y91.491 E10.14155
G1 X91.192 Y87.951 E10.37804
G1 E8.37804
G92 E0
G1 X102.968 Y98.805 F6000
G1 E2 F2400
G1 X102.968 Y106.064 E2.48494
G1 X102.661 Y106.09 E2.50552
G1 X102.018 Y106.09 E2.54848
G1 X102.018 Y98.779 E3.03689
G1 X102.661 Y98.779 E3.07985
G1 X102.888 Y98.798 E3.09507
G1 E1.09507
G92 E0
G1 X96.621 Y109.761 F6000
G1 E2 F2400
G1 X97.196 Y109.882 E2.03925
G1 X97.968 Y110.2 E2.09503
G1 X97.968 Y119.65 E2.72634
G1 X97.195 Y119.969 E2.78221
G1 X96.622 Y120.09 E2.82133
G1 X96.09 Y120.175 E2.85732
G1 X95.526 Y120.174 E2.895
G1 X94.964 Y120.142 E2.93261
G1 X94.436 Y120.029 E2.96868
G1 X93.871 Y119.87 E3.00789
G1 X93.398 Y119.659 E3.04249
G1 X92.861 Y119.372 E3.08317
G1 X92.457 Y119.079 E3.11651
G1 X91.979 Y118.671 E3.15849
G1 X91.657 Y118.313 E3.19066
G1 X91.267 Y117.799 E3.23376
G1 X91.033 Y117.393 E3.26507
G1 X90.758 Y116.797 E3.30892
G1 X90.616 Y116.36 E3.33962
G1 X90.473 Y115.711 E3.38402
G1 X90.426 Y115.259 E3.41438
G1 X90.426 Y114.592 E3.45894
G1 X90.473 Y114.14 E3.4893
G1 X90.616 Y113.491 E3.5337
G1 X90.758 Y113.054 E3.5644
G1 X91.033 Y112.458 E3.60825
G1 X91.268 Y112.051 E3.63965
G1 X91.656 Y111.538 E3.68262
G1 X91.979 Y111.179 E3.71488
G1 X92.457 Y110.772 E3.75682
G1 X92.861 Y110.478 E3.7902
G1 X93.397 Y110.192 E3.83079
G1 X93.872 Y109.98 E3.86554
G1 X94.435 Y109.822 E3.9046
G1 X94.965 Y109.709 E3.9408
G1 X95.525 Y109.677 E3.97827
G1 X96.09 Y109.676 E4.01602
G1 X96.541 Y109.748 E4.04653
G1 X97.144 Y119.73 F6000
G1 F2400
G1 X97.144 Y110.379 E4.67123
G1 X97.057 Y110.345 E4.67747
G1 X96.549 Y110.238 E4.71215
G1 X96.549 Y119.613 E5.33845
G1 X96.052 Y119.693 E5.37208
G1 X95.954 Y119.693 E5.37863
G1 X95.954 Y110.158 E6.01562
G1 X95.358 Y110.169 E6.05544
G1 X95.358 Y119.682 E6.69096
G1 X95.029 Y119.663 E6.71298
G1 X94.763 Y119.606 E6.73115
G1 X94.763 Y110.245 E7.35652
G1 X94.168 Y110.398 E7.39756
G1 X94.168 Y119.453 E8.00248
G1 X94.036 Y119.416 E8.01164
G1 X93.573 Y119.206 E8.0456
G1 X93.573 Y110.645 E8.61752
G1 X93.117 Y110.888 E8.65204
G1 X92.978 Y110.989 E8.66352
G1 X92.978 Y118.861 E9.18941
G1 X92.756 Y118.7 E9.20773
G1 X92.383 Y118.382 E9.24048
G1 X92.383 Y111.469 E9.70231
G1 X92.028 Y111.846 E9.7369
G1 X91.788 Y112.163 E9.76346
G1 X91.788 Y117.687 E10.13249
G1 X91.67 Y117.532 E10.1455
G1 X91.462 Y117.171 E10.17333
G1 X91.192 Y116.575 E10.21704
G1 X91.192 Y112.687 E10.47678
G1 E8.47678
G92 E0
G1 X102.838 Y120.841 F6000
G1 E2 F2400
G1 X102.968 Y120.847 E2.00869
G1 X102.968 Y123.217 E2.16702
G1 X103.276 Y123.525 E2.19612
G1 X106.711 Y123.525 E2.4256
G1 X107.018 Y123.217 E2.45465
G1 X107.018 Y122.737 E2.48672
G1 X107.26 Y122.968 E2.50907
G1 X107.926 Y123.884 E2.58473
G1 X108.417 Y124.904 E2.66036
G1 X108.718 Y125.996 E2.73603
G1 X108.82 Y127.124 E2.81169
G1 X108.719 Y128.252 E2.88735
G1 X108.417 Y129.344 E2.96304
G1 X107.926 Y130.365 E3.03873
G1 X107.26 Y131.281 E3.11439
G1 X106.442 Y132.064 E3.19004
G1 X105.496 Y132.688 E3.26575
G1 X104.455 Y133.133 E3.34138
G1 X103.35 Y133.385 E3.4171
G1 X102.219 Y133.436 E3.49273
G1 X101.096 Y133.284 E3.56844
G1 X100.019 Y132.934 E3.64409
G1 X99.022 Y132.397 E3.71974
G1 X98.136 Y131.691 E3.79542
G1 X97.391 Y130.838 E3.87108
G1 X96.81 Y129.865 E3.94679
G1 X96.412 Y128.805 E4.02243
G1 X96.21 Y127.691 E4.09806
G1 X96.21 Y126.558 E4.17375
G1 X96.412 Y125.443 E4.24945
G1 X96.81 Y124.383 E4.32509
G1 X97.391 Y123.411 E4.40074
G1 X97.968 Y122.75 E4.45936
G1 X97.968 Y123.217 E4.49056
G1 X98.276 Y123.525 E4.51966
G1 X101.711 Y123.525 E4.74914
G1 X102.018 Y123.217 E4.77819
G1 X102.018 Y120.84 E4.93699
G1 X102.219 Y120.813 E4.95054
G1 X102.758 Y120.837 E4.98658
G1 E2.98658
G92 E0
G1 X107.856 Y129.954 F6000
G1 E2 F2400
G1 X107.856 Y124.851 E2.34091
G1 X107.51 Y124.132 E2.39422
G1 X107.261 Y123.789 E2.42254
G1 X107.261 Y130.46 E2.8682
G1 X106.896 Y130.963 E2.90972
G1 X106.666 Y131.182 E2.93094
G1 X106.666 Y124.007 E3.41027
G1 X106.071 Y124.007 E3.45002
G1 X106.071 Y131.731 E3.96603
G1 X105.476 Y132.124 E4.01367
G1 X105.476 Y124.007 E4.55593
G1 X104.881 Y124.007 E4.59568
G1 X104.881 Y132.427 E5.15818
G1 X104.285 Y132.677 E5.20136
G1 X104.285 Y124.007 E5.78056
G1 X103.69 Y124.007 E5.82031
G1 X103.69 Y132.813 E6.4086
G1 X103.285 Y132.906 E6.43636
G1 X103.095 Y132.914 E6.44906
G1 X103.095 Y124.007 E7.0441
G1 X103.076 Y124.007 E7.04537
G1 X102.5 Y123.431 E7.09979
G1 X102.5 Y132.941 E7.73511
G1 X102.241 Y132.952 E7.75243
G1 X101.905 Y132.907 E7.77508
G1 X101.905 Y124.007 E8.36965
G1 X101.31 Y124.007 E8.4094
G1 X101.31 Y132.826 E8.99856
G1 X101.204 Y132.812 E9.0057
G1 X100.715 Y132.653 E9.04005
G1 X100.715 Y124.007 E9.61765
G1 X100.119 Y124.007 E9.65747
G1 X100.119 Y132.44 E10.22084
G1 X99.524 Y132.12 E10.26597
G1 X99.524 Y124.007 E10.80796
G1 X98.929 Y124.007 E10.84771
G1 X98.929 Y131.707 E11.36211
G1 X98.471 Y131.341 E11.40128
G1 X98.334 Y131.185 E11.41515
G1 X98.334 Y124.007 E11.89468
G1 X98.076 Y124.007 E11.91192
G1 X97.776 Y123.707 E11.94026
G1 X97.739 Y123.769 E11.94508
G1 X97.739 Y130.48 E12.39341
G1 X97.246 Y129.656 E12.45756
G1 X97.144 Y129.383 E12.47703
G1 X97.144 Y124.295 E12.81694
G1 E10.81694
G92 E0
G1 X104.677 Y95.337 F6000
G1 E2 F2400
;TYPE:Perimeter
;WIDTH:0.696571
G1 X104.677 Y83.184 E2.95827
G1 X105.309 Y83.184 E3.0081
G1 X105.309 Y121.816 E6.05424
G1 X104.677 Y121.816 E6.10407
G1 X104.677 Y95.397 E8.18721
G1 X104.093 Y95.337 F6000
;TYPE:External perimeter
;WIDTH:0.6
G1 F2400
G1 X104.093 Y82.6 E9.03811
G1 X105.893 Y82.6 E9.15836
G1 X105.893 Y122.4 E11.81721
G1 X104.093 Y122.4 E11.93746
G1 X104.093 Y95.397 E13.7414
G1 X104.435 Y95.13 F6000
G1 E11.7414 F2400
G92 E0
G1 X100.309 Y108.85 F6000
G1 E2 F2400
;TYPE:Perimeter
;WIDTH:0.696571
G1 X100.309 Y121.816 E3.02237
G1 X99.677 Y121.816 E3.0722
G1 X99.677 Y83.184 E6.11834
G1 X100.309 Y83.184 E6.16817
G1 X100.309 Y108.79 E8.18721
G1 X100.893 Y108.85 F6000
;TYPE:External perimeter
;WIDTH:0.6
G1 F2400
G1 X100.893 Y122.4 E9.09242
G1 X99.093 Y122.4 E9.21267
G1 X99.093 Y82.6 E11.87152
G1 X100.893 Y82.6 E11.99177
G1 X100.893 Y108.79 E13.7414
G1 X100.552 Y109.058 F6000
;LAYER_CHANGE
;Z:0.5
;HEIGHT:0.2
G1 Z.5 F6000
G1 E11.7414 F2400
G92 E0
G1 X97.327 Y113.848 F6000
G1 E2 F2400
;TYPE:Support material
;WIDTH:0.4
G1 F3000
G1 X97.279 Y113.766 E2.00282
G1 X97.005 Y113.46 E2.01502
G1 X96.673 Y113.22 E2.02718
G1 X96.295 Y113.053 E2.03945
G1 X95.891 Y112.968 E2.05171
G1 X95.912 Y112.568 E2.0636
G1 X95.418 Y112.573 E2.07827
G1 X94.926 Y112.684 E2.09325
G1 X94.467 Y112.897 E2.10827
G1 X94.064 Y113.203 E2.12329
G1 X93.736 Y113.586 E2.13826
G1 X93.497 Y114.03 E2.15323
G1 X93.357 Y114.512 E2.16813
G1 X93.323 Y114.84 E2.17792
G1 X93.357 Y115.338 E2.19274
G1 X93.497 Y115.82 E2.20764
G1 X93.736 Y116.264 E2.22261
G1 X94.064 Y116.648 E2.2376
G1 X94.467 Y116.953 E2.25261
G1 X94.925 Y117.167 E2.26762
G1 X95.418 Y117.278 E2.28262
G1 X95.966 Y117.276 E2.29889
G1 X96.414 Y117.181 E2.31249
G1 X96.873 Y116.98 E2.32737
G1 X97.275 Y116.689 E2.3421
G1 X97.603 Y116.323 E2.35669
G1 X97.85 Y115.895 E2.37136
G1 X98.004 Y115.422 E2.38613
G1 X98.057 Y114.925 E2.40097
G1 X98.004 Y114.428 E2.41581
G1 X97.85 Y113.955 E2.43058
G1 X97.603 Y113.527 E2.44525
G1 X97.275 Y113.162 E2.45982
G1 X96.873 Y112.871 E2.47455
G1 X96.415 Y112.669 E2.48941
G1 X95.965 Y112.575 E2.50306
G1 E.50306 F2400
G92 E0
G1 X102.342 Y102.074 F6000
G1 E2 F2400
G1 F3000
G1 X102.319 Y102.08 E2.00071
G1 X102.319 Y102.789 E2.02176
G1 X102.429 Y102.817 E2.02513
G1 X102.555 Y102.807 E2.02888
G1 X102.668 Y102.757 E2.03255
